X:1
T:Title
%%score { ( 1 3 ) | ( 2 4 ) }
L:1/8
Q:1/4=100
M:4/4
K:Eb
V:1 treble nm="Grand Piano"
V:3 treble 
V:2 bass 
V:4 bass 
V:1
 [GB]2 [GB]>[Ac] [GB]2 z E | AGFE [DF]2 E2 | c2 [Ad]>[Ad] [Ge]3 G | cB[B,FA][B,EG] [DF]4 | %4
w: J.~Howard~Entwisle * * * *||||
 [GB]2 z2 z4 | AGFE c2 e2 | e2 [EBd][EAc] [EGB][B,FA][B,EG][CFA] |[M:7/8] [B,EG]2 [A,DF]2 [G,E]3 | %8
w: ||||
[M:1/4] B2 |[M:4/4] e6 z2 | [GB]>[_G=A] [=GB]>[_Ac] [GB]2 [EG]2 | [DF]3 [EG] [FA]2 [DF]>[DF] | %12
w: ||||
[M:9/8] [B,EG]2 [B,FA]- [B,FA] [EGB]2- [EGB]B>B |[M:4/4] [Ge]2 [Bd]2 [Ac]2 [GB]>[GB] | %14
w: ||
 [Ac]2 [GB]2 G2 E>F | %15
w: |
 G2 G2 F2 E>F[Q:1/4=98][Q:1/4=97][Q:1/4=95][Q:1/4=94][Q:1/4=92][Q:1/4=91][Q:1/4=89][Q:1/4=88][Q:1/4=86][Q:1/4=84][Q:1/4=83][Q:1/4=81][Q:1/4=80][Q:1/4=78][Q:1/4=77] | %16
w: |
 E6 z2 |] %17
w: |
V:2
 [E,B,]2 [E,E]>[E,E] [E,E]2 z [E,G,] | [E,CE][E,B,E][E,A,B,][E,G,B,] [B,,A,]2 [E,G,]2 | %2
 [A,E]2 [F,B,]>[F,B,] [E,B,]3 [E,B,E] | [E,A,E][E,G,E]D,E, z2 A,2 | %4
 .[E,G,]2 [E,E]>[E,E] [E,E]3 [E,G,] | [E,CE][E,B,E][E,A,B,][E,G,_D][K:treble] [A,E]2 [A,CE]2 | %6
 [A,CA]2 A,A,[K:bass] E,E,E,A,, |[M:7/8] B,,2 B,,2 E,3 |[M:1/4] B,2 | %9
[M:4/4] [E,B,]2 [E,B,]2 [E,B,]2 [E,B,E]>[E,B,] | [E,E]>[E,E] [E,E]>[E,E] [E,E]2 [E,B,]2 | %11
 [B,,B,]3 [B,,B,] [B,,B,]2 [B,,B,]>[B,,B,] |[M:9/8] E,2 E,- E, E,2- E,B,>B, | %13
[M:4/4] [E,B,]2 [E,E]2 [E,E]2 [E,E]>[E,E] | [E,E]2 [E,E]2 [E,B,E]2 [G,B,]>[A,CE] | %15
 [B,E]2 [B,E]2 [B,,A,B,]2 [B,,G,B,]>[B,,A,B,] | [E,G,B,]6 z2 |] %17
V:3
 x8 | x8 | x8 | z4 B,2 z2 | z B, [GB]>[Ac] [GB]3 E | x8 | x8 |[M:7/8] x7 |[M:1/4] x2 | %9
[M:4/4] G2 G2 G2 G>[FA] | x8 | x8 |[M:9/8] x9 |[M:4/4] x8 | x8 | x8 | x8 |] %17
V:4
 x8 | x8 | x8 | z4 B,,4 | x8 | x4[K:treble] x4 | x4[K:bass] x4 |[M:7/8] x7 |[M:1/4] x2 | %9
[M:4/4] x8 | x8 | x8 |[M:9/8] x9 |[M:4/4] x8 | x8 | x8 | x8 |] %17

